X: 40043
T: Through The Roof
R: slip jig
M: 9/8
K: Bminor
M:7/8
|:B2~B2 dBA|~B2AB fdA|B2~B2 dBA|1 FABd edc:|2 FABd efg||
|:a2~a2 gfd|~a2fa baf|a2~a2 gfd|1 ABdf efg:|2 ABdf edc||

